images/fieldEdit.svg

<svg xmlns="http://www.w3.org/2000/svg" viewBox="0 0 18 18"><style>.st0{opacity:0}.st0,.st1{fill:#f6f6f6}.st2{fill:#424242}.st3{fill:#00539c}.st4{fill:#f0eff1}</style><g id="outline"><path class="st0" d="M0 0h16v16H0z"/><path class="st1" d="M12.995 7.052L11.58 8.466l-.707.707-2.121 2.121-.707.707-.236.236L7.08 16h.703l3.031-.757.236-.236.707-.707 2.122-2.121.707-.707L16 10.057z"/></g><g id="icon_x5F_bg"><path class="st2" d="M13.879 10.765l-1.592-1.592.708-.707 1.591 1.591-.707.708zm-.707.707L11.58 9.88l-2.121 2.121 1.591 1.592 2.122-2.121zm-4.95 3.535l2.121-.707-1.591-1.592-.53 2.299z"/><path class="st1" d="M6.739 0L0 3.369v5.236L4.789 11h.42L12 7.605V2.369L7.263 0z"/><path class="st3" d="M1 4v4l4 2 6-3V3L7 1 1 4zm4 1L3 4l4-2 2 1-4 2z"/></g><path class="st4" d="M3 4l2 1 4-2-2-1z" id="icon_x5F_fg"/></svg>

<?xml version="1.0" encoding="UTF-8" standalone="no"?>
<svg
   xmlns:dc="http://purl.org/dc/elements/1.1/"
   xmlns:cc="http://creativecommons.org/ns#"
   xmlns:rdf="http://www.w3.org/1999/02/22-rdf-syntax-ns#"
   xmlns:svg="http://www.w3.org/2000/svg"
   xmlns="http://www.w3.org/2000/svg"
   xmlns:sodipodi="http://sodipodi.sourceforge.net/DTD/sodipodi-0.dtd"
   xmlns:inkscape="http://www.inkscape.org/namespaces/inkscape"
   viewBox="0 0 16 16"
   version="1.1"
   id="svg3823"
   sodipodi:docname="fieldEdit.svg"
   inkscape:version="0.92.3 (2405546, 2018-03-11)"
   width="16"
   height="16">
  <metadata
     id="metadata3829">
    <rdf:RDF>
      <cc:Work
         rdf:about="">
        <dc:format>image/svg+xml</dc:format>
        <dc:type
           rdf:resource="http://purl.org/dc/dcmitype/StillImage" />
        <dc:title />
      </cc:Work>
    </rdf:RDF>
  </metadata>
  <defs
     id="defs3827" />
  <sodipodi:namedview
     pagecolor="#ffffff"
     bordercolor="#666666"
     borderopacity="1"
     objecttolerance="10"
     gridtolerance="10"
     guidetolerance="10"
     inkscape:pageopacity="0"
     inkscape:pageshadow="2"
     inkscape:window-width="1920"
     inkscape:window-height="1017"
     id="namedview3825"
     showgrid="false"
     inkscape:zoom="26.222222"
     inkscape:cx="14.672804"
     inkscape:cy="3.4552801"
     inkscape:window-x="-8"
     inkscape:window-y="-8"
     inkscape:window-maximized="1"
     inkscape:current-layer="svg3823" />
  <style
     id="style3808">.st0{opacity:0}.st0,.st1{fill:#f6f6f6}.st2{fill:#424242}.st3{fill:#00539c}.st4{fill:#f0eff1}</style>
  <g
     id="outline"
     transform="matrix(0.98569919,0,0,0.98569919,0.07627118,0.059322)">
    <path
       class="st0"
       d="M 0,0 H 16 V 16 H 0 Z"
       id="path3810"
       inkscape:connector-curvature="0"
       style="opacity:0;fill:#f6f6f6" />
    <path
       class="st1"
       d="M 12.995,7.052 11.58,8.466 10.873,9.173 8.752,11.294 8.045,12.001 7.809,12.237 7.08,16 H 7.783 L 10.814,15.243 11.05,15.007 11.757,14.3 13.879,12.179 14.586,11.472 16,10.057 Z"
       id="path3812"
       inkscape:connector-curvature="0"
       style="fill:#f6f6f6" />
  </g>
  <g
     id="icon_x5F_bg"
     transform="matrix(0.98569919,0,0,0.98569919,0.07627118,0.059322)">
    <path
       class="st2"
       d="m 13.879,10.765 -1.592,-1.592 0.708,-0.707 1.591,1.591 z M 13.172,11.472 11.58,9.88 9.459,12.001 11.05,13.593 Z M 8.222,15.007 10.343,14.3 8.752,12.708 Z"
       id="path3815"
       inkscape:connector-curvature="0"
       style="fill:#424242" />
    <path
       class="st1"
       d="M 6.739,0 0,3.369 V 8.605 L 4.789,11 h 0.42 L 12,7.605 V 2.369 L 7.263,0 Z"
       id="path3817"
       inkscape:connector-curvature="0"
       style="fill:#f6f6f6" />
    <path
       class="st3"
       d="m 1,4 v 4 l 4,2 6,-3 V 3 L 7,1 Z M 5,5 3,4 7,2 9,3 Z"
       id="path3819"
       inkscape:connector-curvature="0"
       style="fill:#00539c" />
  </g>
  <path
     class="st4"
     d="M 3.0333687,4.0021187 5.0047669,4.9878178 8.947564,3.0164195 6.9761653,2.0307203 Z"
     id="icon_x5F_fg"
     inkscape:connector-curvature="0"
     style="fill:#f0eff1;stroke-width:0.98569918" />
</svg>
